icons/Yes_checkicons.svg

<svg width="16" height="16" viewBox="0 0 16 16" fill="currentColor" xmlns="http://www.w3.org/2000/svg">
<g clip-path="url(#clip0_4_1579)">
<path d="M15.9748 7.33517C15.8033 5.33998 15.0602 3.74383 13.7453 2.48971C13.6881 2.43271 13.5166 2.3757 13.4595 2.48971C13.4023 2.54672 13.3451 2.71773 13.4595 2.77474C14.7172 3.97185 15.4032 5.454 15.5747 7.39218C15.8605 11.5536 12.8306 15.1449 8.60026 15.544C4.42704 15.886 0.768336 12.8077 0.425332 8.6463C0.0823279 4.4849 3.11219 0.89356 7.34257 0.494522C9.05759 0.323506 10.5439 0.665538 11.916 1.57763C12.0303 1.63463 12.1446 1.63463 12.2018 1.52062C12.259 1.40661 12.2018 1.2926 12.1446 1.23559C10.7154 0.2665 9.11476 -0.132538 7.34257 0.0384787C2.88353 0.494522 -0.317843 4.25688 0.0251608 8.7033C0.368165 12.8647 3.85537 16 8.02858 16H8.65742C13.1165 15.544 16.3178 11.7816 15.9748 7.33517V7.33517Z" fill="#3D3D3D"/>
<path fill-rule="evenodd" clip-rule="evenodd" d="M4.16256 8.60771C4.24707 8.52502 4.3828 8.52631 4.46572 8.61058L7.43842 11.6319C7.52134 11.7161 7.52005 11.8515 7.43553 11.9342C7.35102 12.0169 7.21529 12.0156 7.13237 11.9313L4.15967 8.91001C4.07675 8.82573 4.07805 8.69039 4.16256 8.60771Z" fill="#3D3D3D"/>
<path fill-rule="evenodd" clip-rule="evenodd" d="M12.5003 4.71175C12.5957 4.7817 12.6161 4.91551 12.546 5.01061L7.4581 11.9083C7.38794 12.0034 7.25376 12.0238 7.15838 11.9538C7.063 11.8839 7.04256 11.7501 7.11271 11.6549L12.2006 4.75729C12.2708 4.66218 12.4049 4.64179 12.5003 4.71175Z" fill="#3D3D3D"/>
</g>
<defs>
<clipPath id="clip0_4_1579">
<rect width="16" height="16" fill="white"/>
</clipPath>
</defs>
</svg>

<svg xmlns="http://www.w3.org/2000/svg" width="16" height="16" fill="currentColor" class="si si-Yes_checkicons" viewBox="0 0 16 16">
  <g clip-path="url(#a)">
    <path d="M15.975 7.335c-.172-1.995-.915-3.591-2.23-4.845-.057-.057-.228-.114-.285 0-.058.057-.115.228 0 .285 1.257 1.197 1.943 2.679 2.115 4.617.286 4.162-2.744 7.753-6.975 8.152-4.173.342-7.832-2.736-8.175-6.898S3.112.894 7.343.495c1.715-.171 3.2.17 4.573 1.083.114.057.229.057.286-.057s0-.228-.057-.285Q10-.22 7.343.038C2.883.495-.317 4.257.025 8.703.368 12.865 3.855 16 8.03 16h.628c4.46-.456 7.66-4.218 7.318-8.665"/>
    <path fill-rule="evenodd" d="M4.163 8.608a.215.215 0 0 1 .303.003l2.972 3.02a.213.213 0 0 1-.002.303.215.215 0 0 1-.304-.003L4.16 8.91a.213.213 0 0 1 .003-.302"/>
    <path fill-rule="evenodd" d="M12.5 4.712c.096.07.116.204.046.299l-5.088 6.897a.215.215 0 0 1-.3.046.213.213 0 0 1-.045-.3L12.2 4.758a.215.215 0 0 1 .3-.045"/>
  </g>
  <defs>
    <clipPath id="a">
      <path d="M0 0h16v16H0z"/>
    </clipPath>
  </defs>
</svg>
